!!!ONB: MCCC : IFC0051_04 : Extracted Monophonic Melody
!!!COM: Chopin, Frédéric
!!!OPR: Mazurkas
!!!OMV: 4
!!!SCT: Op.30
!!!ODT: 1835///
**kern
*thru
*staff1
*Ipiano
*>A
*clefG2
*k[b-e-a-d-]
*A-:
*M3/4
*MM232
8e-
=1
12a-
12b-
12a-
8g
8a-
8b-
8cc
=2
12dd-
12ee-
12dd-
8cc
8dd-
4ee-
=3
8aa-
16r
16dd-
8cc
8ee-
8a-
8a
=4
8b-
8dd-
8f
8g
4a-[
=5
12a-]
12b-
12a-
8g
8a-
8b-
8cc
=6
12dd-
12ee-
12dd-
8cc
8dd-
8dd
8ee-
=7
8aa-
16r
16dd-
8cc
8ee-
8a-
8a
=8
8b-
8dd-
8f
8g
8a-
16r
16b
=9
*>B
4cc
8ccc
16r
16bb-
4aa-[
=10
8aa-]
8gg
8aa-
8gg
4dd
=11
8cc
8cc
8ccc
16r
16bb-
4aa-[
=12
8aa-]
8gg
8aa-
16r
16gg
4dd
=13
4cc
8.dd-
16ff
4cc
=14
8b
16r
16g
8b
8dd
4cc
=15
4cc
8.dd-
16ff
[4cc
=16
4.cc]
8b-
8.cc
16b-
=17
12a-
12b-
12a-
8g
8a-
8b-
8cc
=18
12dd-
12ee-
12dd-
8cc
8dd-
4ee-
=19
8aa-
16r
16dd-
8cc
8ee-
8a-
8a
=20
8b-
8dd-
8f
8g
4a-[
=21
12a-]
12b-
12a-
8g
16r
16a-
8b-
8cc
=22
12dd-
12ee-
12dd-
8cc
16r
16dd-
8dd
8ee-
=23
8aa-
16r
16dd-
8cc
8ee-
8a-
8a
=24
8b-
8dd-
8f
8g
4a-
=25
*>B
4cc
8ccc
16r
16bb-
4aa-[
=26
8aa-]
8gg
8aa-
8gg
4dd
=27
8cc
8cc
8ccc
16r
16bb-
4aa-[
=28
8aa-]
8gg
8aa-
16r
16gg
4dd
=29
4cc
8.dd-
16ff
4cc
=30
8b
16r
16g
8b
8dd
4cc
=31
4cc
8.dd-
16ff
[4cc
=32
4.cc]
8b-
8.cc
16b-
=33
12a-
12b-
12a-
8g
8a-
8b-
8cc
=34
12dd-
12ee-
12dd-
8cc
8dd-
4ee-
=35
8aa-
16r
16dd-
8cc
8ee-
8a-
8a
=36
8b-
8dd-
8f
8g
4a-[
=37
12a-]
12b-
12a-
8g
16r
16a-
8b-
8cc
=38
12dd-
12ee-
12dd-
8cc
16r
16dd-
8dd
8ee-
=39
8aa-
16r
16dd-
8cc
8ee-
8a-
8a
=40
8b-
8dd-
8f
8g
4a-
=41
*>C
8gg-
8ff
8ee-
8ff
4dd-
=42
8b-
8ee-
8b-
8cc
4a-
=43
8gg-
8ff
8ee-
8ff
4dd-
=44
8b-
8ee-
8a-
8cc
4dd-
=45
8gg-
8ff
8ee-
8ff
8dd-
8a-
=46
8b-
8ee-
8b-
8cc
8a-
8aa-
=47
8gg-
8ff
8ee-
8ff
8dd-
8a-
=48
8b-
8ee-
8a-
8cc
4dd-
=49
*MM180
8ee
8dd
4cc#
4ff#
=50
2ee
4cc#
=51
8ee
8dd
4cc#
4ff#
=52
2ee
4b-
=53
*MM232
12a-
12b-
12a-
8g
8a-
8b-
8cc
=54
12dd-
12ee-
12dd-
8cc
8dd-
4ee-
=55
8aa-
16r
16dd-
8cc
8ee-
8a-
8a
=56
8b-
8dd-
8f
8g
[4a-
=57
12a-]
12b-
12a-
8g
8a-
8b-
8cc
=58
12dd-
12ee-
12dd-
8cc
16r
16dd-
8dd
8ee-
=59
8aa-
16r
16dd-
8cc
8ee-
8a-
8a
=60
8b-
8dd-
8f
8g
4a-
==
*-
